dist/assets/images/card/icon-2.svg

<svg width="125" height="87" viewBox="0 0 125 87" fill="none" xmlns="http://www.w3.org/2000/svg">
<path d="M62.3989 22.916H83.6249C87.8879 22.916 92.1259 23.953 95.7639 26.174C98.2789 27.711 100.644 29.847 101.54 32.701" stroke="#DE1F26" stroke-miterlimit="10"/>
<path d="M103.306 35.8085L98.8452 34.0515L103.624 31.1055L103.306 35.8085Z" stroke="#DE1F26" stroke-miterlimit="10"/>
<path d="M92.3199 59.084L91.3159 73.133L94.3259 68.402L99.4869 71.843L92.3199 59.084Z" stroke="#DE1F26" stroke-miterlimit="10"/>
<path d="M123.813 1H1V85.586H123.813V1Z" stroke="#DE1F26" stroke-miterlimit="10"/>
<path d="M85.041 54.1563C91.4161 54.1563 96.584 48.9883 96.584 42.6133C96.584 36.2383 91.4161 31.0703 85.041 31.0703C78.666 31.0703 73.498 36.2383 73.498 42.6133C73.498 48.9883 78.666 54.1563 85.041 54.1563Z" stroke="#0000BD" stroke-miterlimit="10"/>
<path d="M15.364 56.4043H85.041C89.285 56.4043 98.833 53.6023 98.833 42.6123C98.833 34.9953 92.658 28.8203 85.041 28.8203H16.209" stroke="#0000BD" stroke-miterlimit="10"/>
<path d="M85.0411 45.1584C86.4472 45.1584 87.5871 44.0185 87.5871 42.6124C87.5871 41.2063 86.4472 40.0664 85.0411 40.0664C83.635 40.0664 82.4951 41.2063 82.4951 42.6124C82.4951 44.0185 83.635 45.1584 85.0411 45.1584Z" stroke="#0000BD" stroke-miterlimit="10"/>
</svg>

<svg width="125" height="87" fill="none" xmlns="http://www.w3.org/2000/svg"><path d="M62.399 22.916h21.226c4.263 0 8.5 1.037 12.139 3.258 2.515 1.537 4.88 3.673 5.776 6.527" stroke="#DE1F26" stroke-miterlimit="10"/><path d="M103.306 35.809l-4.46-1.758 4.778-2.946-.318 4.704zM92.32 59.084l-1.004 14.049 3.01-4.731 5.16 3.441-7.166-12.759z" stroke="#DE1F26" stroke-miterlimit="10"/><path d="M123.813 1H1v84.586h122.813V1z" stroke="#DE1F26" stroke-miterlimit="10"/><path d="M85.041 54.156c6.375 0 11.543-5.168 11.543-11.543 0-6.375-5.168-11.543-11.543-11.543-6.375 0-11.543 5.168-11.543 11.543 0 6.375 5.168 11.543 11.543 11.543z" stroke="#0000BD" stroke-miterlimit="10"/><path d="M15.364 56.404h69.677c4.244 0 13.792-2.802 13.792-13.792 0-7.617-6.175-13.792-13.792-13.792H16.209" stroke="#0000BD" stroke-miterlimit="10"/><path d="M85.041 45.158a2.546 2.546 0 100-5.092 2.546 2.546 0 000 5.092z" stroke="#0000BD" stroke-miterlimit="10"/></svg>
